;FLAVOR:Marlin
;TIME:125
;Filament used: 0.0370297m
;Layer height: 0.1
;MINX:40.162
;MINY:48.599
;MINZ:0.3
;MAXX:64.838
;MAXY:61.401
;MAXZ:2.3
;Generated with Cura_SteamEngine 4.3.0
M104 S200
M105
M109 S200
M82 ;absolute extrusion mode
;Sliced at: Tue 29-10-2019 13:21:03
G21 ;metric values
G90 ;absolute positioning
M82 ;set extruder to absolute mode
M107 ;start with the fan off
G1 Z5.0 F1800 ;move Z to 5mm
G28 X0 Y0 F1800 ;move X/Y to min endstops
G28 Z0 ;move Z to min endstop
G92 E0 ;zero the extruded length
G1 F200 E4.0 ;extrude 4.0mm of feed stock to build pressure
G1 Z5.0 F300 ;move the platform down 5mm
G92 E0 ;zero the extruded length again
G1 F1800
;Put printing message on LCD screen
M117 Printing...
G92 E0
G92 E0
G1 F2400 E-3
;LAYER_COUNT:11
;LAYER:0
M107
G1 F600 Z1.3
G0 F900 X41.568 Y49.571 Z1.3
;TYPE:SKIRT
G1 F600 Z0.3
G1 F2400 E0
G1 F900 X42.022 Y49.234 E0.02821
G1 X42.519 Y48.965 E0.0564
G1 X43.049 Y48.768 E0.08461
G1 X43.602 Y48.649 E0.11283
G1 X44.059 Y48.61 E0.13572
G1 X44.38 Y48.601 E0.15174
G1 X44.492 Y48.599 E0.15733
G1 X60.188 Y48.599 E0.9404
G1 X60.886 Y48.609 E0.97523
G1 X61.45 Y48.657 E1.00347
G1 X62 Y48.784 E1.03163
G1 X62.528 Y48.988 E1.05987
G1 X63.022 Y49.263 E1.08808
G1 X63.471 Y49.606 E1.11627
G1 X63.868 Y50.008 E1.14445
G1 X64.205 Y50.463 E1.1727
G1 X64.473 Y50.96 E1.20087
G1 X64.669 Y51.49 E1.22906
G1 X64.789 Y52.043 E1.2573
G1 X64.827 Y52.497 E1.28003
G1 X64.836 Y52.817 E1.296
G1 X64.838 Y52.929 E1.30159
G1 X64.838 Y56.715 E1.49047
G1 X64.829 Y57.442 E1.52674
G1 X64.782 Y58.005 E1.55493
G1 X64.656 Y58.556 E1.58313
G1 X64.454 Y59.084 E1.61133
G1 X64.179 Y59.578 E1.63954
G1 X63.837 Y60.028 E1.66774
G1 X63.435 Y60.426 E1.69596
G1 X62.982 Y60.763 E1.72413
G1 X62.485 Y61.033 E1.75235
G1 X61.955 Y61.23 E1.78056
G1 X61.403 Y61.351 E1.80875
G1 X60.941 Y61.39 E1.83188
G1 X60.62 Y61.399 E1.8479
G1 X60.508 Y61.401 E1.85349
G1 X44.817 Y61.401 E2.63632
G1 X44.119 Y61.392 E2.67114
G1 X43.556 Y61.344 E2.69933
G1 X43.005 Y61.218 E2.72753
G1 X42.477 Y61.016 E2.75574
G1 X41.983 Y60.741 E2.78394
G1 X41.533 Y60.399 E2.81214
G1 X41.135 Y59.997 E2.84036
G1 X40.799 Y59.543 E2.86854
G1 X40.529 Y59.046 E2.89676
G1 X40.332 Y58.516 E2.92497
G1 X40.212 Y57.964 E2.95315
G1 X40.172 Y57.5 E2.97639
G1 X40.163 Y57.167 E2.99301
G1 X40.162 Y57.059 E2.9984
G1 X40.162 Y53.219 E3.18997
G1 X40.171 Y52.554 E3.22315
G1 X40.219 Y51.991 E3.25134
G1 X40.345 Y51.44 E3.27954
G1 X40.548 Y50.912 E3.30777
G1 X40.824 Y50.418 E3.336
G1 X41.166 Y49.968 E3.3642
G1 X41.568 Y49.571 E3.39238
G0 X41.956 Y49.77
G1 X42.403 Y49.472 E3.41918
G1 X42.888 Y49.244 E3.44592
G1 X43.402 Y49.091 E3.47268
G1 X44.07 Y49.009 E3.50625
G1 X44.391 Y49 E3.52228
G1 X44.492 Y48.999 E3.52731
G1 X60.183 Y48.999 E4.31014
G1 X60.881 Y49.009 E4.34497
G1 X61.415 Y49.057 E4.37172
G1 X61.936 Y49.183 E4.39846
G1 X62.433 Y49.386 E4.42524
G1 X62.894 Y49.66 E4.452
G1 X63.309 Y49.999 E4.47873
G1 X63.669 Y50.397 E4.50551
G1 X63.966 Y50.843 E4.53224
G1 X64.194 Y51.329 E4.55902
G1 X64.346 Y51.843 E4.58576
G1 X64.428 Y52.508 E4.61919
G1 X64.437 Y52.828 E4.63516
G1 X64.438 Y52.929 E4.6402
G1 X64.438 Y56.71 E4.82884
G1 X64.429 Y57.437 E4.86511
G1 X64.382 Y57.971 E4.89185
G1 X64.257 Y58.492 E4.91858
G1 X64.055 Y58.989 E4.94535
G1 X63.782 Y59.451 E4.97212
G1 X63.444 Y59.867 E4.99886
G1 X63.047 Y60.228 E5.02563
G1 X62.601 Y60.526 E5.0524
G1 X62.116 Y60.754 E5.07913
G1 X61.602 Y60.908 E5.1059
G1 X60.93 Y60.991 E5.13968
G1 X60.609 Y61 E5.1557
G1 X60.508 Y61.001 E5.16074
G1 X44.823 Y61.001 E5.94327
G1 X44.125 Y60.992 E5.9781
G1 X43.59 Y60.945 E6.00489
G1 X43.069 Y60.819 E6.03163
G1 X42.572 Y60.617 E6.0584
G1 X42.111 Y60.344 E6.08513
G1 X41.695 Y60.005 E6.1119
G1 X41.334 Y59.609 E6.13864
G1 X41.036 Y59.163 E6.1654
G1 X40.808 Y58.677 E6.19218
G1 X40.655 Y58.163 E6.21893
G1 X40.572 Y57.489 E6.25281
G1 X40.563 Y57.156 E6.26943
G1 X40.562 Y57.059 E6.27427
G1 X40.562 Y53.224 E6.4656
G1 X40.571 Y52.559 E6.49878
G1 X40.619 Y52.025 E6.52553
G1 X40.745 Y51.504 E6.55227
G1 X40.947 Y51.007 E6.57904
G1 X41.22 Y50.546 E6.60577
G1 X41.559 Y50.13 E6.63254
G1 X41.956 Y49.77 E6.65928
G0 X41.951 Y50.303
G1 X42.342 Y49.982 E6.68452
G1 X42.779 Y49.727 E6.70976
G1 X43.25 Y49.543 E6.73499
G1 X43.744 Y49.437 E6.76019
G1 X44.081 Y49.409 E6.77706
G1 X44.402 Y49.4 E6.79309
G1 X44.492 Y49.399 E6.79758
G1 X60.177 Y49.399 E7.5801
G1 X60.875 Y49.409 E7.61493
G1 X61.378 Y49.456 E7.64013
G1 X61.868 Y49.582 E7.66538
G1 X62.332 Y49.784 E7.69062
G1 X62.758 Y50.056 E7.71584
G1 X63.136 Y50.391 E7.74104
G1 X63.456 Y50.782 E7.76625
G1 X63.711 Y51.219 E7.79149
G1 X63.894 Y51.69 E7.8167
G1 X64.001 Y52.184 E7.84192
G1 X64.028 Y52.519 E7.85868
G1 X64.037 Y52.839 E7.87465
G1 X64.038 Y52.929 E7.87914
G1 X64.038 Y56.705 E8.06753
G1 X64.029 Y57.432 E8.1038
G1 X63.983 Y57.935 E8.129
G1 X63.858 Y58.425 E8.15423
G1 X63.657 Y58.889 E8.17946
G1 X63.386 Y59.316 E8.20469
G1 X63.051 Y59.695 E8.22993
G1 X62.661 Y60.016 E8.25513
G1 X62.225 Y60.272 E8.28035
G1 X61.754 Y60.455 E8.30556
G1 X61.26 Y60.563 E8.33079
G1 X60.919 Y60.591 E8.34786
G1 X60.598 Y60.6 E8.36388
G1 X60.508 Y60.601 E8.36837
G1 X44.828 Y60.601 E9.15065
G1 X44.13 Y60.592 E9.18547
G1 X43.626 Y60.545 E9.21073
G1 X43.136 Y60.42 E9.23596
G1 X42.672 Y60.219 E9.26118
G1 X42.246 Y59.948 E9.28637
G1 X41.867 Y59.613 E9.31161
G1 X41.546 Y59.222 E9.33685
G1 X41.291 Y58.786 E9.36205
G1 X41.107 Y58.315 E9.38728
G1 X41 Y57.821 E9.41249
G1 X40.972 Y57.478 E9.42966
G1 X40.963 Y57.145 E9.44628
G1 X40.962 Y57.059 E9.45057
G1 X40.962 Y53.23 E9.6416
G1 X40.971 Y52.565 E9.67478
G1 X41.018 Y52.061 E9.70004
G1 X41.144 Y51.572 E9.72523
G1 X41.345 Y51.108 E9.75046
G1 X41.616 Y50.681 E9.77569
G1 X41.951 Y50.303 E9.80089
G1 F2400 E6.80089
G1 F600 Z1.3
;MESH:RF100.stl
G0 F900 X44.762 Y56.801 Z1.3
;TYPE:WALL-INNER
G1 F600 Z0.3
G1 F2400 E9.80089
G1 F900 X44.762 Y53.199 E9.98059
G1 X60.238 Y53.199 E10.75269
G1 X60.238 Y56.801 E10.9324
G1 X44.762 Y56.801 E11.7045
G0 X44.362 Y57.201
;TYPE:WALL-OUTER
G1 X44.362 Y52.799 E11.92411
G1 X60.638 Y52.799 E12.73613
G1 X60.638 Y57.201 E12.95574
G1 X44.362 Y57.201 E13.76776
G0 X44.362 Y57.001
G0 X45.152 Y56.411
;TYPE:SKIN
G1 X45.152 Y53.589 E13.90855
G1 X59.848 Y53.589 E14.64173
G1 X59.848 Y56.411 E14.78252
G1 X45.152 Y56.411 E15.51571
G0 X45.522 Y56.27
G1 X45.291 Y56.039 E15.53201
G0 X45.291 Y55.473
G1 X46.087 Y56.27 E15.58821
G0 X46.653 Y56.27
G1 X45.291 Y54.908 E15.6843
G0 X45.291 Y54.342
G1 X47.219 Y56.27 E15.82033
G0 X47.784 Y56.27
G1 X45.291 Y53.776 E15.99626
G0 X45.809 Y53.728
G1 X48.35 Y56.27 E16.17558
G0 X48.916 Y56.27
G1 X46.374 Y53.728 E16.35493
G0 X46.94 Y53.728
G1 X49.481 Y56.27 E16.53425
G0 X50.047 Y56.27
G1 X47.506 Y53.728 E16.71356
G0 X48.071 Y53.728
G1 X50.613 Y56.27 E16.89292
G0 X51.178 Y56.27
G1 X48.637 Y53.728 E17.07223
G0 X49.203 Y53.728
G1 X51.744 Y56.27 E17.25155
G0 X52.31 Y56.27
G1 X49.769 Y53.728 E17.43087
G0 X50.334 Y53.728
G1 X52.876 Y56.27 E17.61022
G0 X53.441 Y56.27
G1 X50.9 Y53.728 E17.78953
G0 X51.466 Y53.728
G1 X54.007 Y56.27 E17.96885
G0 X54.573 Y56.27
G1 X52.031 Y53.728 E18.1482
G0 X52.598 Y53.729
G1 X55.138 Y56.27 E18.32745
G0 X55.704 Y56.27
G1 X53.163 Y53.729 E18.50673
G0 X53.729 Y53.729
G1 X56.27 Y56.27 E18.68601
G0 X56.835 Y56.27
G1 X54.295 Y53.729 E18.86526
G0 X54.86 Y53.729
G1 X57.401 Y56.27 E19.04454
G0 X57.967 Y56.27
G1 X55.426 Y53.729 E19.22382
G0 X55.992 Y53.729
G1 X58.532 Y56.27 E19.40307
G0 X59.098 Y56.27
G1 X56.557 Y53.729 E19.58235
G0 X57.123 Y53.729
G1 X59.664 Y56.27 E19.76163
G0 X59.707 Y55.747
G1 X57.689 Y53.729 E19.90401
G0 X58.254 Y53.729
G1 X59.707 Y55.181 E20.00649
G0 X59.707 Y54.616
G1 X58.82 Y53.729 E20.06907
G0 X59.386 Y53.729
G1 X59.707 Y54.05 E20.09172
;MESH:NONMESH
G0 F600 X59.707 Y54.05 Z0.4
G0 F900 X44.832 Y56.731
G0 X44.762 Y56.801
;TIME_ELAPSED:35.824233
;LAYER:1
M106 S85
;TYPE:WALL-INNER
;MESH:RF100.stl
G1 F1500 X44.762 Y53.199 E20.15162
G1 X60.238 Y53.199 E20.40899
G1 X60.238 Y56.801 E20.46889
G1 X44.762 Y56.801 E20.72626
G0 F1950 X44.362 Y57.201
;TYPE:WALL-OUTER
G1 F1200 X44.362 Y52.799 E20.79946
G1 X60.638 Y52.799 E21.07014
G1 X60.638 Y57.201 E21.14334
G1 X44.362 Y57.201 E21.41401
G0 F1950 X44.362 Y57.001
G0 X45.152 Y56.411
;TYPE:SKIN
G1 F1350 X45.152 Y53.589 E21.46094
G1 X59.848 Y53.589 E21.70534
G1 X59.848 Y56.411 E21.75227
G1 X45.152 Y56.411 E21.99666
G0 F1950 X45.292 Y54.268
G1 F1350 X45.832 Y53.728 E22.00936
G0 F1950 X46.398 Y53.728
G1 F1350 X45.292 Y54.834 E22.03537
G0 F1950 X45.292 Y55.399
G1 F1350 X46.963 Y53.728 E22.07467
G0 F1950 X47.529 Y53.728
G1 F1350 X45.292 Y55.965 E22.12728
G0 F1950 X45.552 Y56.27
G1 F1350 X48.095 Y53.728 E22.18708
G0 F1950 X48.66 Y53.728
G1 F1350 X46.118 Y56.27 E22.24686
G0 F1950 X46.683 Y56.27
G1 F1350 X49.226 Y53.728 E22.30666
G0 F1950 X49.792 Y53.728
G1 F1350 X47.249 Y56.27 E22.36646
G0 F1950 X47.815 Y56.27
G1 F1350 X50.358 Y53.728 E22.42625
G0 F1950 X50.923 Y53.728
G1 F1350 X48.38 Y56.27 E22.48605
G0 F1950 X48.946 Y56.27
G1 F1350 X51.489 Y53.728 E22.54584
G0 F1950 X52.055 Y53.728
G1 F1350 X49.512 Y56.27 E22.60564
G0 F1950 X50.078 Y56.27
G1 F1350 X52.62 Y53.728 E22.66542
G0 F1950 X53.185 Y53.728
G1 F1350 X50.643 Y56.27 E22.72521
G0 F1950 X51.209 Y56.27
G1 F1350 X53.751 Y53.728 E22.78499
G0 F1950 X54.317 Y53.728
G1 F1350 X51.775 Y56.27 E22.84477
G0 F1950 X52.34 Y56.27
G1 F1350 X54.882 Y53.728 E22.90456
G0 F1950 X55.448 Y53.728
G1 F1350 X52.906 Y56.27 E22.96434
G0 F1950 X53.472 Y56.27
G1 F1350 X56.014 Y53.728 E23.02413
G0 F1950 X56.579 Y53.728
G1 F1350 X54.037 Y56.27 E23.08391
G0 F1950 X54.603 Y56.27
G1 F1350 X57.145 Y53.728 E23.14369
G0 F1950 X57.711 Y53.728
G1 F1350 X55.169 Y56.27 E23.20348
G0 F1950 X55.734 Y56.27
G1 F1350 X58.276 Y53.728 E23.26326
G0 F1950 X58.842 Y53.728
G1 F1350 X56.3 Y56.27 E23.32305
G0 F1950 X56.866 Y56.27
G1 F1350 X59.408 Y53.728 E23.38283
G0 F1950 X59.707 Y53.995
G1 F1350 X57.431 Y56.27 E23.43635
G0 F1950 X57.997 Y56.27
G1 F1350 X59.707 Y54.561 E23.47655
G0 F1950 X59.707 Y55.126
G1 F1350 X58.563 Y56.27 E23.50346
G0 F1950 X59.128 Y56.27
G1 F1350 X59.707 Y55.692 E23.51706
G1 X59.777 Y55.622
;MESH:NONMESH
G0 F600 X59.777 Y55.622 Z0.5
G0 F1950 X44.832 Y56.731
G0 X44.762 Y56.801
;TIME_ELAPSED:46.269347
;LAYER:2
M106 S170
;TYPE:WALL-INNER
;MESH:RF100.stl
G1 F2100 X44.762 Y53.199 E23.57696
G1 X60.238 Y53.199 E23.83433
G1 X60.238 Y56.801 E23.89423
G1 X44.762 Y56.801 E24.1516
G0 F3000 X44.362 Y57.201
;TYPE:WALL-OUTER
G1 F1500 X44.362 Y52.799 E24.2248
G1 X60.638 Y52.799 E24.49547
G1 X60.638 Y57.201 E24.56868
G1 X44.362 Y57.201 E24.83935
G0 F3000 X44.362 Y57.001
G0 X45.152 Y56.411
;TYPE:SKIN
G1 F1800 X45.152 Y53.589 E24.88628
G1 X59.848 Y53.589 E25.13068
G1 X59.848 Y56.411 E25.17761
G1 X45.152 Y56.411 E25.422
G0 F3000 X45.522 Y56.27
G1 F1800 X45.291 Y56.039 E25.42743
G0 F3000 X45.291 Y55.473
G1 F1800 X46.087 Y56.27 E25.44617
G0 F3000 X46.653 Y56.27
G1 F1800 X45.291 Y54.908 E25.4782
G0 F3000 X45.291 Y54.342
G1 F1800 X47.219 Y56.27 E25.52354
G0 F3000 X47.784 Y56.27
G1 F1800 X45.291 Y53.776 E25.58219
G0 F3000 X45.809 Y53.728
G1 F1800 X48.35 Y56.27 E25.64196
G0 F3000 X48.916 Y56.27
G1 F1800 X46.374 Y53.728 E25.70174
G0 F3000 X46.94 Y53.728
G1 F1800 X49.481 Y56.27 E25.76151
G0 F3000 X50.047 Y56.27
G1 F1800 X47.506 Y53.728 E25.82129
G0 F3000 X48.071 Y53.728
G1 F1800 X50.613 Y56.27 E25.88107
G0 F3000 X51.178 Y56.27
G1 F1800 X48.637 Y53.728 E25.94084
G0 F3000 X49.203 Y53.728
G1 F1800 X51.744 Y56.27 E26.00062
G0 F3000 X52.31 Y56.27
G1 F1800 X49.769 Y53.728 E26.06039
G0 F3000 X50.334 Y53.728
G1 F1800 X52.876 Y56.27 E26.12017
G0 F3000 X53.441 Y56.27
G1 F1800 X50.9 Y53.728 E26.17994
G0 F3000 X51.466 Y53.728
G1 F1800 X54.007 Y56.27 E26.23972
G0 F3000 X54.573 Y56.27
G1 F1800 X52.031 Y53.728 E26.2995
G0 F3000 X52.598 Y53.729
G1 F1800 X55.138 Y56.27 E26.35925
G0 F3000 X55.704 Y56.27
G1 F1800 X53.163 Y53.729 E26.41901
G0 F3000 X53.729 Y53.729
G1 F1800 X56.27 Y56.27 E26.47877
G0 F3000 X56.835 Y56.27
G1 F1800 X54.295 Y53.729 E26.53852
G0 F3000 X54.86 Y53.729
G1 F1800 X57.401 Y56.27 E26.59828
G0 F3000 X57.967 Y56.27
G1 F1800 X55.426 Y53.729 E26.65804
G0 F3000 X55.992 Y53.729
G1 F1800 X58.532 Y56.27 E26.71779
G0 F3000 X59.098 Y56.27
G1 F1800 X56.557 Y53.729 E26.77755
G0 F3000 X57.123 Y53.729
G1 F1800 X59.664 Y56.27 E26.83731
G0 F3000 X59.707 Y55.747
G1 F1800 X57.689 Y53.729 E26.88477
G0 F3000 X58.254 Y53.729
G1 F1800 X59.707 Y55.181 E26.91893
G0 F3000 X59.707 Y54.616
G1 F1800 X58.82 Y53.729 E26.93979
G0 F3000 X59.386 Y53.729
G1 F1800 X59.707 Y54.05 E26.94734
G1 F2400 E23.94734
G1 F600 Z1.5
G0 F3000 X59.707 Y54.05 Z1.5
G0 X60.838 Y57.401
G1 F600 Z1.5
G0 F3000 X59.365 Y55.751
;TYPE:SKIN
G1 F600 Z0.5
G1 F2400 E26.94734
G1 F1200 X59.268 Y55.848 E26.94757
G1 X59.127 Y55.848 E26.9478
G1 X59.365 Y55.61 E26.94836
G1 X59.365 Y55.468 E26.9486
G1 X58.986 Y55.848 E26.94949
G1 X58.844 Y55.848 E26.94973
G1 X59.365 Y55.327 E26.95095
G1 X59.365 Y55.186 E26.95119
G1 X58.703 Y55.848 E26.95274
G1 X58.561 Y55.848 E26.95298
G1 X59.365 Y55.044 E26.95487
G1 X59.365 Y54.903 E26.9551
G1 X58.42 Y55.848 E26.95733
G1 X58.369 Y55.848 E26.95741
G1 X58.369 Y55.757 E26.95756
G1 X59.365 Y54.761 E26.95991
G1 X59.365 Y54.62 E26.96014
G1 X58.369 Y55.616 E26.96248
G1 X58.369 Y55.474 E26.96272
G1 X59.365 Y54.479 E26.96506
G1 X59.365 Y54.337 E26.9653
G1 X58.369 Y55.333 E26.96764
G1 X58.369 Y55.191 E26.96787
G1 X59.365 Y54.196 E26.97022
G1 X59.365 Y54.088 E26.9704
G1 X59.331 Y54.088 E26.97045
G1 X58.369 Y55.05 E26.97271
G1 X58.369 Y54.908 E26.97295
G1 X59.189 Y54.088 E26.97488
G1 X59.048 Y54.088 E26.97511
G1 X58.369 Y54.767 E26.97671
G1 X58.369 Y54.626 E26.97695
G1 X58.906 Y54.088 E26.97821
G1 X58.765 Y54.088 E26.97844
G1 X58.369 Y54.484 E26.97938
G1 X58.369 Y54.343 E26.97961
G1 X58.624 Y54.088 E26.98021
G1 X58.482 Y54.088 E26.98045
G1 X58.369 Y54.201 E26.98071
G1 F2400 E23.98071
G1 F600 Z1.5
G0 F3000 X55.969 Y54.088 Z1.5
G1 F600 Z0.5
G1 F2400 E26.98071
G1 F1200 X55.937 Y54.088 E26.98076
G1 X54.973 Y55.052 E26.98303
G1 X54.973 Y54.911 E26.98327
G1 X55.795 Y54.088 E26.9852
G1 X55.654 Y54.088 E26.98544
G1 X54.973 Y54.769 E26.98704
G1 X54.973 Y54.628 E26.98727
G1 X55.512 Y54.088 E26.98854
G1 X55.371 Y54.088 E26.98877
G1 X54.973 Y54.486 E26.98971
G1 X54.973 Y54.345 E26.98995
G1 X55.229 Y54.088 E26.99055
G1 X55.088 Y54.088 E26.99078
G1 X54.973 Y54.203 E26.99105
G0 F3000 X55.969 Y54.088
G1 F1200 X55.969 Y54.197 E26.99123
G1 X54.973 Y55.193 E26.99358
G1 X54.973 Y55.335 E26.99381
G1 X55.969 Y54.339 E26.99616
G1 X55.969 Y54.48 E26.99639
G1 X54.973 Y55.476 E26.99873
G1 X54.973 Y55.618 E26.99897
G1 X55.969 Y54.621 E27.00131
G1 X55.969 Y54.763 E27.00155
G1 X54.973 Y55.759 E27.00389
G1 X54.973 Y55.847 E27.00404
G1 X55.026 Y55.848 E27.00413
G1 X55.969 Y54.904 E27.00634
G1 X55.969 Y55.046 E27.00658
G1 X55.167 Y55.848 E27.00847
G1 X55.309 Y55.848 E27.0087
G1 X55.969 Y55.187 E27.01026
G1 X55.969 Y55.328 E27.01049
G1 X55.45 Y55.848 E27.01171
G1 X55.592 Y55.848 E27.01195
G1 X55.969 Y55.47 E27.01284
G1 X55.969 Y55.611 E27.01307
G1 X55.733 Y55.848 E27.01363
G1 X55.874 Y55.848 E27.01386
G1 X55.969 Y55.753 E27.01408
G1 F2400 E24.01408
G1 F600 Z1.5
G0 F3000 X52.316 Y55.87 Z1.5
G1 F600 Z0.5
G1 F2400 E27.01408
G1 F1200 X52.455 Y55.732 E27.01441
G1 X52.455 Y55.59 E27.01465
G1 X52.175 Y55.87 E27.01531
G1 X52.033 Y55.87 E27.01554
G1 X52.455 Y55.449 E27.01653
G1 X52.455 Y55.307 E27.01677
G1 X51.779 Y55.983 E27.01836
G1 X51.637 Y55.983 E27.01859
G1 X52.455 Y55.166 E27.02052
G1 X52.455 Y55.024 E27.02075
G1 X51.789 Y55.691 E27.02232
G1 X51.789 Y55.549 E27.02256
G1 X52.455 Y54.883 E27.02412
G1 X52.455 Y54.742 E27.02436
G1 X51.789 Y55.408 E27.02592
G1 X51.789 Y55.266 E27.02616
G1 X52.455 Y54.6 E27.02773
G1 X52.455 Y54.459 E27.02796
G1 X51.789 Y55.125 E27.02953
G1 X51.789 Y54.983 E27.02976
G1 X52.455 Y54.317 E27.03133
G1 X52.455 Y54.176 E27.03156
G1 X51.789 Y54.842 E27.03313
G1 X51.789 Y54.701 E27.03337
G1 X52.455 Y54.034 E27.03493
G1 X52.455 Y53.893 E27.03517
G1 X51.789 Y54.559 E27.03673
G1 X51.789 Y54.418 E27.03697
G1 X52.455 Y53.752 E27.03853
G1 X52.455 Y53.61 E27.03877
G1 X51.727 Y54.338 E27.04048
G1 X51.586 Y54.338 E27.04072
G1 X52.455 Y53.469 E27.04276
G1 X52.455 Y53.327 E27.043
G1 X51.444 Y54.338 E27.04538
